X:100
T:Qual Tust' Oi, Qual Tust' Ola ?
R:Nol
M:2/4
L:1/8
N:Calme, main pas lente
N:La Bourre 4th edition 1929, page 96
Z:Steve Mansfield www.lesession.co.uk June 2012
K:G
G G/ A/ |: B > A B > A | B2 d2 | e > d c c | 
[1 B2 G G/ A/ :|2 B2 (GA) ||[M:3/4] B d A A A2 ||[M:2/4] D2 E F |
G2 G G/ A/ ||[M:3/4] B d A A A2 ||[M:2/4] D2 E F | G4 |]
<end>
<start>
